(/Applications/pcbgcode.repo/pcb-gcode.ulp)
(Copyright 2005 - 2012 by John Johnson)
(See readme.txt for licensing terms.)
(This file generated from the board:)
(.../eurorack/CR78-TB/eagle/CR78-TB.brd)
(Current profile is .../pcbgcode.repo/profiles/mach.pp  )
(This file generated 6/10/16 9:45 PM)
(Settings from pcb-machine.h)
(spindle on time = 0.0000)
(spindle speed = 15000.0000)
(milling depth = -0.0700)
(tool change at 0.0000  0.0000  1.5000  )
(feed rate xy = F10    )
(feed rate z  = F5     )
(Z Axis Settings)
(  High     Up        Down     Drill)
(0.2500  	0.0500  	-0.0035 	-0.0750 )
(Settings from pcb-defaults.h)
(isolate min = 0.0050)
(isolate max = 0.0200)
(isolate step = 0.0010)
(Generated bottom outlines, bottom drill, )
(Unit of measure: inch)
(Inch Mode)
G20
(Absolute Coordinates)
G90
S15000
G00 Z0.2500  
G00 X0.0000  Y0.0000  
M03
G04 P0.000000
G00 Z0.0500  
G00 X0.0000  Y-0.0300 
G01 Z-0.0700 F5     
G01 X-1.7200 Y-0.0300 F10    
G01 X-1.7600 Y0.0000  
G01 X-1.7600 Y1.9300  
G01 X-0.0200 Y1.9300  
G01 X0.0300  Y1.8800  
G01 X0.0300  Y0.0000  
G01 X0.0000  Y-0.0300 
G00 Z0.0500  
G00 X-0.2900 Y0.2300  
G01 Z-0.0700 F5     
G01 X-0.2900 Y0.3000  F10    
G01 X-0.3600 Y0.3000  
G01 X-0.3600 Y0.2300  
G01 X-0.2900 Y0.2300  
G00 Z0.0500  
G00 X-1.5600 Y0.1800  
G01 Z-0.0700 F5     
G01 X-1.5600 Y0.1100  F10    
G01 X-1.6300 Y0.1100  
G01 X-1.6300 Y0.1800  
G01 X-1.5600 Y0.1800  
G00 Z0.0500  
G00 X-1.5700 Y1.7400  
G01 Z-0.0700 F5     
G01 X-1.5700 Y1.8100  F10    
G01 X-1.6400 Y1.8100  
G01 X-1.6400 Y1.7400  
G01 X-1.5700 Y1.7400  
G00 Z0.2500  
M05
M02
