(/Applications/pcbgcode.repo/pcb-gcode.ulp)
(Copyright 2005 - 2012 by John Johnson)
(See readme.txt for licensing terms.)
(This file generated from the board:)
(.../eurorack/CR78-TB/eagle/CR78-TB.brd)
(Current profile is .../pcbgcode.repo/profiles/mach.pp  )
(This file generated 6/10/16 9:45 PM)
(Settings from pcb-machine.h)
(spindle on time = 0.0000)
(spindle speed = 20000.0000)
(tool change at 0.0000  0.0000  1.5000  )
(feed rate xy = F0     )
(feed rate z  = F20    )
(Z Axis Settings)
(  High     Up        Down     Drill)
(0.2500  	0.0500  	-0.0035 	-0.0750 )
(Settings from pcb-defaults.h)
(isolate min = 0.0050)
(isolate max = 0.0200)
(isolate step = 0.0010)
(Generated bottom outlines, bottom drill, )
(Unit of measure: inch)
( Tool|       Size       |  Min Sub |  Max Sub |   Count )
( T01 | 0.800mm 0.0315in | 0.0000in | 0.0000in |       0 )
( T02 | 0.813mm 0.0320in | 0.0000in | 0.0000in |       0 )
( T03 | 0.900mm 0.0354in | 0.0000in | 0.0000in |       0 )
( T04 | 1.000mm 0.0394in | 0.0000in | 0.0000in |       0 )
( T05 | 1.300mm 0.0512in | 0.0000in | 0.0000in |       0 )
(Inch Mode)
G20
(Absolute Coordinates)
G90
S20000
G00 Z0.2500  
G00 X0.0000  Y0.0000  
M03
G04 P0.000000
M05
G00 Z1.5000  
M06 T01  ; 0.0315  
G01 Z0.0000  F20    
M06 
G00 Z0.0500  
M03
G04 P0.000000
G82 X-0.7500 Y1.0100  Z-0.0750 F20    R0.0500  P0.020000
G82 X-0.7500 Y1.5500  
M05
G00 Z1.5000  
G00 X0.0000  Y0.0000  
M06 T02  ; 0.0320  
G01 Z0.0000  F20    
M06 
G00 Z0.0500  
M03
G04 P0.000000
G82 X-0.0600 Y0.7300  Z-0.0750 F20    R0.0500  P0.020000
G82 X-0.2400 Y0.6450  
G82 X-0.2600 Y0.7300  
G82 X-0.2900 Y0.5700  
G82 X-0.1900 Y0.5700  
G82 X-0.4500 Y0.5600  
G82 X-0.5600 Y0.6000  
G82 X-0.4500 Y0.7600  
G82 X-0.5600 Y0.9000  
G82 X-0.4600 Y1.0700  
G82 X-0.3500 Y1.1600  
G82 X-0.2750 Y1.2100  
G82 X-0.3500 Y1.2600  
G82 X-0.2700 Y1.4100  
G82 X-0.4600 Y1.4700  
G82 X-0.5600 Y1.5500  
G82 X-0.6600 Y1.2900  
G82 X-0.5600 Y1.2500  
G82 X-0.6600 Y1.0900  
G82 X-0.8400 Y1.1800  
G82 X-0.9600 Y1.0900  
G82 X-1.0600 Y0.9900  
G82 X-1.1350 Y0.9900  
G82 X-1.2100 Y0.9400  
G82 X-1.2100 Y1.0400  
G82 X-1.3600 Y1.0900  
G82 X-1.5100 Y1.1400  
G82 X-1.5400 Y1.0650  
G82 X-1.4900 Y0.9900  
G82 X-1.5900 Y0.9900  
G82 X-1.6000 Y0.8600  
G82 X-1.6000 Y0.7500  
G82 X-1.5900 Y0.6400  
G82 X-1.4600 Y0.6400  
G82 X-1.4000 Y0.7500  
G82 X-1.4000 Y0.8600  
G82 X-1.3000 Y0.8800  
G82 X-1.3000 Y0.5800  
G82 X-1.3200 Y0.4800  
G82 X-1.1900 Y0.6000  
G82 X-1.0600 Y0.6900  
G82 X-0.9900 Y0.6000  
G82 X-1.0200 Y0.4800  
G82 X-1.1000 Y0.3800  
G82 X-1.2200 Y0.3300  
G82 X-1.2950 Y0.2800  
G82 X-1.2200 Y0.2300  
G82 X-1.4600 Y0.3400  
G82 X-1.5900 Y0.4400  
G82 X-0.9500 Y0.2300  
G82 X-0.8500 Y0.2300  
G82 X-0.8000 Y0.3800  
G82 X-0.8600 Y0.6000  
G82 X-0.9600 Y0.7900  
G82 X-0.8600 Y0.9000  
G82 X-0.9900 Y1.3400  
G82 X-1.0400 Y1.4900  
G82 X-1.0100 Y1.5800  
G82 X-1.0100 Y1.6800  
G82 X-1.0100 Y1.7800  
G82 X-0.8400 Y1.4800  
G82 X-1.1900 Y1.3400  
G82 X-1.3600 Y1.3900  
G82 X-1.3400 Y1.4900  
G82 X-1.4200 Y1.5200  
G82 X-1.5100 Y1.4400  
G82 X-1.6100 Y1.5000  
G82 X-1.4200 Y1.7200  
G82 X-1.6100 Y1.2000  
G82 X-0.0700 Y1.4100  
M05
G00 Z1.5000  
G00 X0.0000  Y0.0000  
M06 T03  ; 0.0354  
G01 Z0.0000  F20    
M06 
G00 Z0.0500  
M03
G04 P0.000000
G82 X-0.1700 Y0.8700  Z-0.0750 F20    R0.0500  P0.020000
G82 X-0.2100 Y0.9800  
G82 X-0.4700 Y0.8700  
G82 X-0.5600 Y0.8100  
G82 X-0.5600 Y0.7100  
G82 X-0.5100 Y0.9800  
G82 X-0.8600 Y0.8100  
G82 X-0.8600 Y0.7100  
G82 X-0.9600 Y1.2000  
G82 X-1.2600 Y1.2000  
M05
G00 Z1.5000  
G00 X0.0000  Y0.0000  
M06 T04  ; 0.0394  
G01 Z0.0000  F20    
M06 
G00 Z0.0500  
M03
G04 P0.000000
G82 X-0.1300 Y1.7300  Z-0.0750 F20    R0.0500  P0.020000
G82 X-0.2300 Y1.7300  
G82 X-0.3300 Y1.7300  
G82 X-0.4300 Y1.7300  
G82 X-0.5300 Y1.7300  
G82 X-0.6300 Y1.7300  
G82 X-0.7300 Y1.7300  
M05
G00 Z1.5000  
G00 X0.0000  Y0.0000  
M06 T05  ; 0.0512  
G01 Z0.0000  F20    
M06 
G00 Z0.0500  
M03
G04 P0.000000
G82 X-0.0980 Y0.2430  Z-0.0750 F20    R0.0500  P0.020000
G82 X-0.0984 Y0.2769  
G82 X-0.0980 Y0.3100  
G82 X-0.4980 Y0.0720  
G82 X-0.5315 Y0.0721  
G82 X-0.5650 Y0.0720  
G82 X-0.6180 Y0.2440  
G82 X-0.6181 Y0.2769  
G82 X-0.6180 Y0.3100  
T01 
G00 Z0.2500  
M05
M02
